X: 1
T: The Gap Of Dreams
R: jig
M: 6/8
L: 1/8
K: Bmin
|: B2f dBf|dBf cAF|B2f dBf|Bcd cde|!
B2f dBf|dBf cAF|GAB cde|1 fec B2A:|2 fec B2F ||!
|:GAB cde|Bcd efg|aAA gag|fed ecA|!
GAB cde|Bcd efg|aAA gag|fdc d3:|
